assets/code-fill.svg

<svg xmlns="http://www.w3.org/2000/svg" fill="none" viewBox="0 0 28 28">
  <path fill="#2A2238" fill-rule="evenodd" d="M14 0C6.26801 0 0 6.26801 0 14c0 7.732 6.26801 14 14 14 7.732 0 14-6.268 14-14 0-7.73199-6.268-14-14-14Zm-1.6041 21.8697c-.0719.4079.2005.797.6085.8689.4079.072.7968-.2004.8687-.6083l2.6437-15c.0719-.40792-.2005-.79695-.6084-.86891-.4079-.07196-.7969.2004-.8688.60832L12.3959 21.8697Zm-9.11768-8.5128c-.09503-.3351.05453-.7022.3756-.8694l7.42728-3.86811c.3674-.19133.8202-.04856 1.0114.31889.1912.36746.0483.82044-.3191 1.01177L5.00584 13.4746l5.62296 5.2591c.3025.2829.3185.7576.0357 1.0603-.2828.3026-.75726.3186-1.05978.0357l-6.11677-5.7209c-.21191-.1982-.28323-.4905-.20973-.7519ZM24.6975 16.631c.0608.3431-.125.6932-.4614.8272l-7.7794 3.0986c-.3849.1532-.821-.0345-.9741-.4194-.1532-.3848.0347-.8211.4195-.9743l7.0885-2.8234-5.0639-5.7999c-.2724-.312-.2405-.78592.0714-1.05849.3119-.27258.7856-.2406 1.058.07142l5.5086 6.30917c.1909.2186.2323.5165.1328.7691Z" clip-rule="evenodd"/>
</svg>

<svg width="28" height="28" viewBox="0 0 28 28" fill="none" xmlns="http://www.w3.org/2000/svg">
<path fill-rule="evenodd" clip-rule="evenodd" d="M14 0C6.26801 0 0 6.26801 0 14C0 21.732 6.26801 28 14 28C21.732 28 28 21.732 28 14C28 6.26801 21.732 0 14 0ZM12.3959 21.8697C12.324 22.2776 12.5964 22.6667 13.0044 22.7386C13.4123 22.8106 13.8012 22.5382 13.8731 22.1303L16.5168 7.1303C16.5887 6.72238 16.3163 6.33335 15.9084 6.26139C15.5005 6.18943 15.1115 6.46179 15.0396 6.86971L12.3959 21.8697ZM3.27822 13.3569C3.18319 13.0218 3.33275 12.6547 3.65382 12.4875L11.0811 8.61939C11.4485 8.42806 11.9013 8.57083 12.0925 8.93828C12.2837 9.30574 12.1408 9.75872 11.7734 9.95005L5.00584 13.4746L10.6288 18.7337C10.9313 19.0166 10.9473 19.4913 10.6645 19.794C10.3817 20.0966 9.90724 20.1126 9.60472 19.8297L3.48795 14.1088C3.27604 13.9106 3.20472 13.6183 3.27822 13.3569ZM24.6975 16.631C24.7583 16.9741 24.5725 17.3242 24.2361 17.4582L16.4567 20.5568C16.0718 20.71 15.6357 20.5223 15.4826 20.1374C15.3294 19.7526 15.5173 19.3163 15.9021 19.1631L22.9906 16.3397L17.9267 10.5398C17.6543 10.2278 17.6862 9.75388 17.9981 9.48131C18.31 9.20873 18.7837 9.24071 19.0561 9.55273L24.5647 15.8619C24.7556 16.0805 24.797 16.3784 24.6975 16.631Z" fill="#2A2238"/>
</svg>
